icons/disease_group.svg

<svg id="_x33_0" enable-background="new 0 0 64 64" height="512" viewBox="0 0 64 64" width="512" xmlns="http://www.w3.org/2000/svg"><g><g><g><path d="m59 16c1.66 0 3 1.34 3 3s-1.34 3-3 3c-.59 0-1.15-.17-1.61-.47-.84-.53-1.39-1.46-1.39-2.53 0-1.66 1.34-3 3-3z" fill="#ff826e"/></g><g><path d="m8.16 26.64c1.11.71 1.84 1.95 1.84 3.36s-.73 2.65-1.84 3.36c-.63.41-1.37.64-2.16.64-2.21 0-4-1.79-4-4s1.79-4 4-4c.79 0 1.53.23 2.16.64z" fill="#ff826e"/></g><g><path d="m37 2c1.66 0 3 1.34 3 3s-1.34 3-3 3c-.66 0-1.27-.21-1.76-.58-.75-.53-1.24-1.42-1.24-2.42 0-1.66 1.34-3 3-3z" fill="#ff826e"/></g><g><path d="m56 58c0 2.21-1.79 4-4 4s-4-1.79-4-4 1.79-4 4-4c.79 0 1.53.23 2.16.64 1.11.71 1.84 1.95 1.84 3.36z" fill="#ff826e"/></g><g><path d="m10 55c0 1.66-1.34 3-3 3s-3-1.34-3-3 1.34-3 3-3c.66 0 1.27.21 1.76.58.75.53 1.24 1.42 1.24 2.42z" fill="#ff826e"/></g><g><path d="m38 56c1.1 0 2 .9 2 2s-.9 2-2 2-2-.9-2-2c0-.7.37-1.33.92-1.68.31-.21.68-.32 1.08-.32z" fill="#ff826e"/></g><g><path d="m15 13c1.66 0 3 1.34 3 3s-1.34 3-3 3c-.6 0-1.15-.18-1.62-.48-.83-.53-1.38-1.46-1.38-2.52 0-1.66 1.34-3 3-3z" fill="#ff826e"/></g><g><path d="m52 30 9 14-6.84 10.64c-.63-.41-1.37-.64-2.16-.64-2.21 0-4 1.79-4 4h-8c0-1.1-.9-2-2-2-.4 0-.77.11-1.08.32l-7.92-12.32 9-14z" fill="#e6e9ed"/></g><g><path d="m29 16 9 14-9 14h-14l-6.84-10.64c1.11-.71 1.84-1.95 1.84-3.36s-.73-2.65-1.84-3.36l5.22-8.12c.47.3 1.02.48 1.62.48 1.66 0 3-1.34 3-3z" fill="#e6e9ed"/></g></g><g><path d="m53.187 29.997 4.579-7.197c.394.128.809.2 1.234.2 2.206 0 4-1.794 4-4s-1.794-4-4-4-4 1.794-4 4c0 1.037.392 2.007 1.075 2.734l-4.624 7.266h-12.905l-8.335-12.965 5.326-7.323c.459.182.95.288 1.463.288 2.206 0 4-1.794 4-4s-1.794-4-4-4-4 1.794-4 4c0 .945.337 1.846.915 2.543l-5.424 7.457h-9.633c-.447-1.721-1.999-3-3.858-3-2.206 0-4 1.794-4 4 0 1.026.387 1.989 1.065 2.716l-4.265 6.635c-.572-.223-1.178-.351-1.8-.351-2.757 0-5 2.243-5 5s2.243 5 5 5c.623 0 1.23-.128 1.801-.35l5.988 9.315-5.326 7.323c-.459-.182-.95-.288-1.463-.288-2.206 0-4 1.794-4 4s1.794 4 4 4 4-1.794 4-4c0-.945-.337-1.846-.915-2.543l5.424-7.457h12.945l7.19 11.184c-.398.518-.644 1.151-.644 1.816 0 1.654 1.346 3 3 3 1.302 0 2.402-.839 2.816-2h6.285c.465 2.279 2.484 4 4.899 4 2.757 0 5-2.243 5-5 0-1.37-.559-2.643-1.516-3.571l6.704-10.429zm5.813-12.997c1.103 0 2 .897 2 2s-.897 2-2 2c-.388 0-.756-.106-1.076-.315-.578-.366-.924-.996-.924-1.685 0-1.103.897-2 2-2zm-22-14c1.103 0 2 .897 2 2s-.897 2-2 2c-.43 0-.829-.131-1.183-.396-.511-.363-.817-.962-.817-1.604 0-1.103.897-2 2-2zm-18.142 14h9.596l8.357 13-8.357 13h-12.908l-6.062-9.43c.958-.929 1.516-2.202 1.516-3.57 0-1.37-.559-2.643-1.516-3.571l4.268-6.64c.403.135.822.211 1.248.211 1.859 0 3.411-1.279 3.858-3zm-3.858-3c1.103 0 2 .897 2 2s-.897 2-2 2c-.383 0-.746-.108-1.082-.323-.575-.367-.918-.993-.918-1.677 0-1.103.897-2 2-2zm-12 16c0-1.654 1.346-3 3-3 .575 0 1.134.165 1.621.481.863.553 1.379 1.495 1.379 2.519s-.516 1.966-1.385 2.521c-.481.314-1.04.479-1.615.479-1.654 0-3-1.346-3-3zm4 27c-1.103 0-2-.897-2-2s.897-2 2-2c.43 0 .829.131 1.183.396.511.363.817.962.817 1.604 0 1.103-.897 2-2 2zm31 2c-.552 0-1-.448-1-1 0-.337.175-.657.48-.852.146-.098.321-.148.52-.148.552 0 1 .448 1 1s-.448 1-1 1zm9.101-2h-6.285c-.414-1.161-1.514-2-2.816-2-.236 0-.464.034-.686.085l-7.125-11.085 8.357-13h12.908l8.357 13-6.011 9.351c-.572-.223-1.178-.351-1.8-.351-2.414 0-4.434 1.721-4.899 4zm4.899 4c-1.654 0-3-1.346-3-3s1.346-3 3-3c.575 0 1.134.165 1.621.481.863.553 1.379 1.495 1.379 2.519 0 1.654-1.346 3-3 3z"/><path d="m15 25h8v2h-8z"/><path d="m25 25h4v2h-4z"/><path d="m15 29h14v2h-14z"/><path d="m27 33h2v2h-2z"/><path d="m23 33h2v2h-2z"/><path d="m15 33h6v2h-6z"/><path d="m38 39h8v2h-8z"/><path d="m48 39h4v2h-4z"/><path d="m38 43h14v2h-14z"/><path d="m50 47h2v2h-2z"/><path d="m46 47h2v2h-2z"/><path d="m38 47h6v2h-6z"/></g></g></svg>

<?xml version="1.0" encoding="UTF-8" standalone="no"?>
<svg
   xmlns:dc="http://purl.org/dc/elements/1.1/"
   xmlns:cc="http://creativecommons.org/ns#"
   xmlns:rdf="http://www.w3.org/1999/02/22-rdf-syntax-ns#"
   xmlns:svg="http://www.w3.org/2000/svg"
   xmlns="http://www.w3.org/2000/svg"
   xmlns:sodipodi="http://sodipodi.sourceforge.net/DTD/sodipodi-0.dtd"
   xmlns:inkscape="http://www.inkscape.org/namespaces/inkscape"
   inkscape:version="1.0 (4035a4fb49, 2020-05-01)"
   sodipodi:docname="disease_group.svg"
   version="1.1"
   width="24"
   viewBox="0 0 3 3"
   height="24"
   enable-background="new 0 0 64 64"
   id="_x33_0">
  <metadata
     id="metadata75">
    <rdf:RDF>
      <cc:Work
         rdf:about="">
        <dc:format>image/svg+xml</dc:format>
        <dc:type
           rdf:resource="http://purl.org/dc/dcmitype/StillImage" />
        <dc:title></dc:title>
      </cc:Work>
    </rdf:RDF>
  </metadata>
  <defs
     id="defs73" />
  <sodipodi:namedview
     inkscape:current-layer="_x33_0"
     inkscape:window-maximized="1"
     inkscape:window-y="0"
     inkscape:window-x="0"
     inkscape:cy="45.394123"
     inkscape:cx="63.612122"
     inkscape:zoom="11.136932"
     showgrid="false"
     id="namedview71"
     inkscape:window-height="1417"
     inkscape:window-width="2560"
     inkscape:pageshadow="2"
     inkscape:pageopacity="0"
     guidetolerance="10"
     gridtolerance="10"
     objecttolerance="10"
     borderopacity="1"
     bordercolor="#666666"
     pagecolor="#ffffff" />
  <g
     transform="matrix(0.0483871,0,0,0.0483871,-0.0483871,-0.0483871)"
     id="g68">
    <g
       id="g38">
      <g
         id="g4">
        <path
           id="path2"
           fill="#ff826e"
           d="m 59,16 c 1.66,0 3,1.34 3,3 0,1.66 -1.34,3 -3,3 -0.59,0 -1.15,-0.17 -1.61,-0.47 C 56.55,21 56,20.07 56,19 c 0,-1.66 1.34,-3 3,-3 z" />
      </g>
      <g
         id="g8">
        <path
           id="path6"
           fill="#ff826e"
           d="M 8.16,26.64 C 9.27,27.35 10,28.59 10,30 10,31.41 9.27,32.65 8.16,33.36 7.53,33.77 6.79,34 6,34 3.79,34 2,32.21 2,30 c 0,-2.21 1.79,-4 4,-4 0.79,0 1.53,0.23 2.16,0.64 z" />
      </g>
      <g
         id="g12">
        <path
           id="path10"
           fill="#ff826e"
           d="m 37,2 c 1.66,0 3,1.34 3,3 0,1.66 -1.34,3 -3,3 C 36.34,8 35.73,7.79 35.24,7.42 34.49,6.89 34,6 34,5 34,3.34 35.34,2 37,2 Z" />
      </g>
      <g
         id="g16">
        <path
           id="path14"
           fill="#ff826e"
           d="m 56,58 c 0,2.21 -1.79,4 -4,4 -2.21,0 -4,-1.79 -4,-4 0,-2.21 1.79,-4 4,-4 0.79,0 1.53,0.23 2.16,0.64 C 55.27,55.35 56,56.59 56,58 Z" />
      </g>
      <g
         id="g20">
        <path
           id="path18"
           fill="#ff826e"
           d="m 10,55 c 0,1.66 -1.34,3 -3,3 -1.66,0 -3,-1.34 -3,-3 0,-1.66 1.34,-3 3,-3 0.66,0 1.27,0.21 1.76,0.58 C 9.51,53.11 10,54 10,55 Z" />
      </g>
      <g
         id="g24">
        <path
           id="path22"
           fill="#ff826e"
           d="m 38,56 c 1.1,0 2,0.9 2,2 0,1.1 -0.9,2 -2,2 -1.1,0 -2,-0.9 -2,-2 0,-0.7 0.37,-1.33 0.92,-1.68 C 37.23,56.11 37.6,56 38,56 Z" />
      </g>
      <g
         id="g28">
        <path
           id="path26"
           fill="#ff826e"
           d="m 15,13 c 1.66,0 3,1.34 3,3 0,1.66 -1.34,3 -3,3 -0.6,0 -1.15,-0.18 -1.62,-0.48 C 12.55,17.99 12,17.06 12,16 c 0,-1.66 1.34,-3 3,-3 z" />
      </g>
      <g
         id="g32">
        <path
           id="path30"
           fill="#e6e9ed"
           d="m 52,30 9,14 -6.84,10.64 C 53.53,54.23 52.79,54 52,54 c -2.21,0 -4,1.79 -4,4 h -8 c 0,-1.1 -0.9,-2 -2,-2 -0.4,0 -0.77,0.11 -1.08,0.32 L 29,44 38,30 Z" />
      </g>
      <g
         id="g36">
        <path
           id="path34"
           fill="#e6e9ed"
           d="m 29,16 9,14 -9,14 H 15 L 8.16,33.36 C 9.27,32.65 10,31.41 10,30 10,28.59 9.27,27.35 8.16,26.64 l 5.22,-8.12 C 13.85,18.82 14.4,19 15,19 c 1.66,0 3,-1.34 3,-3 z" />
      </g>
    </g>
    <g
       id="g66">
      <path
         id="path40"
         d="M 53.187,29.997 57.766,22.8 C 58.16,22.928 58.575,23 59,23 c 2.206,0 4,-1.794 4,-4 0,-2.206 -1.794,-4 -4,-4 -2.206,0 -4,1.794 -4,4 0,1.037 0.392,2.007 1.075,2.734 L 51.451,29 H 38.546 L 30.211,16.035 35.537,8.712 C 35.996,8.894 36.487,9 37,9 39.206,9 41,7.206 41,5 41,2.794 39.206,1 37,1 c -2.206,0 -4,1.794 -4,4 0,0.945 0.337,1.846 0.915,2.543 L 28.491,15 H 18.858 C 18.411,13.279 16.859,12 15,12 c -2.206,0 -4,1.794 -4,4 0,1.026 0.387,1.989 1.065,2.716 L 7.8,25.351 C 7.228,25.128 6.622,25 6,25 c -2.757,0 -5,2.243 -5,5 0,2.757 2.243,5 5,5 0.623,0 1.23,-0.128 1.801,-0.35 l 5.988,9.315 -5.326,7.323 C 8.004,51.106 7.513,51 7,51 c -2.206,0 -4,1.794 -4,4 0,2.206 1.794,4 4,4 2.206,0 4,-1.794 4,-4 0,-0.945 -0.337,-1.846 -0.915,-2.543 L 15.509,45 h 12.945 l 7.19,11.184 C 35.246,56.702 35,57.335 35,58 c 0,1.654 1.346,3 3,3 1.302,0 2.402,-0.839 2.816,-2 h 6.285 c 0.465,2.279 2.484,4 4.899,4 2.757,0 5,-2.243 5,-5 0,-1.37 -0.559,-2.643 -1.516,-3.571 L 62.188,44 Z M 59,17 c 1.103,0 2,0.897 2,2 0,1.103 -0.897,2 -2,2 -0.388,0 -0.756,-0.106 -1.076,-0.315 C 57.346,20.319 57,19.689 57,19 c 0,-1.103 0.897,-2 2,-2 z M 37,3 c 1.103,0 2,0.897 2,2 0,1.103 -0.897,2 -2,2 C 36.57,7 36.171,6.869 35.817,6.604 35.306,6.241 35,5.642 35,5 35,3.897 35.897,3 37,3 Z M 18.858,17 h 9.596 l 8.357,13 -8.357,13 H 15.546 L 9.484,33.57 C 10.442,32.641 11,31.368 11,30 11,28.63 10.441,27.357 9.484,26.429 l 4.268,-6.64 C 14.155,19.924 14.574,20 15,20 c 1.859,0 3.411,-1.279 3.858,-3 z M 15,14 c 1.103,0 2,0.897 2,2 0,1.103 -0.897,2 -2,2 -0.383,0 -0.746,-0.108 -1.082,-0.323 C 13.343,17.31 13,16.684 13,16 c 0,-1.103 0.897,-2 2,-2 z M 3,30 c 0,-1.654 1.346,-3 3,-3 0.575,0 1.134,0.165 1.621,0.481 C 8.484,28.034 9,28.976 9,30 9,31.024 8.484,31.966 7.615,32.521 7.134,32.835 6.575,33 6,33 4.346,33 3,31.654 3,30 Z M 7,57 C 5.897,57 5,56.103 5,55 5,53.897 5.897,53 7,53 7.43,53 7.829,53.131 8.183,53.396 8.694,53.759 9,54.358 9,55 9,56.103 8.103,57 7,57 Z m 31,2 c -0.552,0 -1,-0.448 -1,-1 0,-0.337 0.175,-0.657 0.48,-0.852 C 37.626,57.05 37.801,57 38,57 c 0.552,0 1,0.448 1,1 0,0.552 -0.448,1 -1,1 z m 9.101,-2 H 40.816 C 40.402,55.839 39.302,55 38,55 c -0.236,0 -0.464,0.034 -0.686,0.085 L 30.189,44 38.546,31 H 51.454 L 59.811,44 53.8,53.351 C 53.228,53.128 52.622,53 52,53 c -2.414,0 -4.434,1.721 -4.899,4 z M 52,61 c -1.654,0 -3,-1.346 -3,-3 0,-1.654 1.346,-3 3,-3 0.575,0 1.134,0.165 1.621,0.481 C 54.484,56.034 55,56.976 55,58 c 0,1.654 -1.346,3 -3,3 z" />
      <path
         id="path42"
         d="m 15,25 h 8 v 2 h -8 z" />
      <path
         id="path44"
         d="m 25,25 h 4 v 2 h -4 z" />
      <path
         id="path46"
         d="m 15,29 h 14 v 2 H 15 Z" />
      <path
         id="path48"
         d="m 27,33 h 2 v 2 h -2 z" />
      <path
         id="path50"
         d="m 23,33 h 2 v 2 h -2 z" />
      <path
         id="path52"
         d="m 15,33 h 6 v 2 h -6 z" />
      <path
         id="path54"
         d="m 38,39 h 8 v 2 h -8 z" />
      <path
         id="path56"
         d="m 48,39 h 4 v 2 h -4 z" />
      <path
         id="path58"
         d="m 38,43 h 14 v 2 H 38 Z" />
      <path
         id="path60"
         d="m 50,47 h 2 v 2 h -2 z" />
      <path
         id="path62"
         d="m 46,47 h 2 v 2 h -2 z" />
      <path
         id="path64"
         d="m 38,47 h 6 v 2 h -6 z" />
    </g>
  </g>
</svg>
